svgs/duotone/money-check.svg

<svg xmlns="http://www.w3.org/2000/svg" viewBox="0 0 576 512"><!--! Font Awesome Pro 6.6.0 by @fontawesome - https://fontawesome.com License - https://fontawesome.com/license (Commercial License) Copyright 2024 Fonticons, Inc. --><defs><style>.fa-secondary{opacity:.4}</style></defs><path class="fa-secondary" d="M0 128L0 384c0 35.3 28.7 64 64 64l448 0c35.3 0 64-28.7 64-64l0-256c0-35.3-28.7-64-64-64L64 64C28.7 64 0 92.7 0 128zM96 240c0-8.8 7.2-16 16-16l192 0c8.8 0 16 7.2 16 16s-7.2 16-16 16l-192 0c-8.8 0-16-7.2-16-16zm0 96c0-8.8 7.2-16 16-16l352 0c8.8 0 16 7.2 16 16s-7.2 16-16 16l-352 0c-8.8 0-16-7.2-16-16zM384 184c0-13.3 10.7-24 24-24l48 0c13.3 0 24 10.7 24 24l0 48c0 13.3-10.7 24-24 24l-48 0c-13.3 0-24-10.7-24-24l0-48z"/><path class="fa-primary" d="M408 160c-13.3 0-24 10.7-24 24l0 48c0 13.3 10.7 24 24 24l48 0c13.3 0 24-10.7 24-24l0-48c0-13.3-10.7-24-24-24l-48 0zM112 224c-8.8 0-16 7.2-16 16s7.2 16 16 16l192 0c8.8 0 16-7.2 16-16s-7.2-16-16-16l-192 0z"/></svg>

<svg xmlns="http://www.w3.org/2000/svg" viewBox="0 0 576 512"><!--! Font Awesome Pro 6.4.0 by @fontawesome - https://fontawesome.com License - https://fontawesome.com/license (Commercial License) Copyright 2023 Fonticons, Inc. --><defs><style>.fa-secondary{opacity:.4}</style></defs><path class="fa-primary" d="M408 160c-13.3 0-24 10.7-24 24v48c0 13.3 10.7 24 24 24h48c13.3 0 24-10.7 24-24V184c0-13.3-10.7-24-24-24H408zM112 224c-8.8 0-16 7.2-16 16s7.2 16 16 16H304c8.8 0 16-7.2 16-16s-7.2-16-16-16H112z"/><path class="fa-secondary" d="M64 64C28.7 64 0 92.7 0 128V384c0 35.3 28.7 64 64 64H512c35.3 0 64-28.7 64-64V128c0-35.3-28.7-64-64-64H64zm48 160H304c8.8 0 16 7.2 16 16s-7.2 16-16 16H112c-8.8 0-16-7.2-16-16s7.2-16 16-16zM96 336c0-8.8 7.2-16 16-16H464c8.8 0 16 7.2 16 16s-7.2 16-16 16H112c-8.8 0-16-7.2-16-16zM408 160h48c13.3 0 24 10.7 24 24v48c0 13.3-10.7 24-24 24H408c-13.3 0-24-10.7-24-24V184c0-13.3 10.7-24 24-24z"/></svg>
